build/img/category2__img_03.svg

<svg width="64" height="64" fill="none" xmlns="http://www.w3.org/2000/svg"><g opacity=".4"><path d="M58 29c-3.401 0-5.127.531-6.796 1.044-1.598.492-3.107.956-6.207.956-3.101 0-4.61-.464-6.208-.956C37.12 29.531 35.394 29 31.993 29c-3.399 0-5.124.531-6.791 1.044-1.597.492-3.105.956-6.203.956-3.099 0-4.608-.464-6.205-.956C11.125 29.531 9.4 29 6 29" stroke="#333" stroke-width="2"/><path d="M49 7h-.616c-4.021-3.864-9.277-6-14.869-6h-3.029c-5.592 0-10.849 2.136-14.869 6H15C9.486 7 5 11.486 5 17v37c0 1.654 1.346 3 3 3h1v3c0 1.654 1.346 3 3 3h2c1.654 0 3-1.346 3-3v-3h30v3c0 1.654 1.346 3 3 3h2c1.654 0 3-1.346 3-3v-3h1c1.654 0 3-1.346 3-3V17c0-5.514-4.486-10-10-10zM30.485 3h3.029a19.35 19.35 0 0113.263 5.21L43 15.764V13c0-1.654-1.346-3-3-3H26c-2.757 0-5 2.243-5 5v.764L17.223 8.21A19.346 19.346 0 0130.485 3zM41 13v8c0 1.654-1.346 3-3 3H24c-.551 0-1-.448-1-1v-8c0-1.654 1.346-3 3-3h14c.551 0 1 .448 1 1zM15 9h.382l4 8H7c0-4.411 3.589-8 8-8zm0 51c0 .552-.449 1-1 1h-2c-.551 0-1-.448-1-1v-3h4v3zm38 0c0 .552-.449 1-1 1h-2c-.551 0-1-.448-1-1v-3h4v3zm4-6c0 .552-.449 1-1 1H8c-.551 0-1-.448-1-1v-3h50v3zM7.101 49A5.009 5.009 0 0112 45h40a5.01 5.01 0 014.899 4H7.101zM57 45.111A6.973 6.973 0 0052 43H12c-1.958 0-3.728.81-5 2.111V19h14v4c0 1.654 1.346 3 3 3h14c2.757 0 5-2.243 5-5v-2h14v26.111zM44.618 17l4-8H49c4.411 0 8 3.589 8 8H44.618z" fill="#333"/><path d="M29 35c0 1.654 1.346 3 3 3v-2a1.001 1.001 0 010-2v-2c-1.654 0-3 1.346-3 3zm-17 0v2a1.001 1.001 0 010 2c-.551 0-1-.448-1-1H9c0 1.654 1.346 3 3 3s3-1.346 3-3-1.346-3-3-3zm40 5v-2a1.001 1.001 0 010-2c.551 0 1 .448 1 1h2c0-1.654-1.346-3-3-3s-3 1.346-3 3 1.346 3 3 3zm-14-5v2a1.001 1.001 0 010 2c-.551 0-1-.448-1-1h-2c0 1.654 1.346 3 3 3s3-1.346 3-3-1.346-3-3-3zm-16 4a1.001 1.001 0 010-2v-2c-1.654 0-3 1.346-3 3s1.346 3 3 3 3-1.346 3-3h-2c0 .552-.449 1-1 1z" fill="#333"/></g></svg>

<svg width="64" height="64" viewBox="0 0 64 64" fill="none" xmlns="http://www.w3.org/2000/svg">
<g opacity="0.4">
<path d="M58 29C54.599 29 52.873 29.531 51.204 30.044C49.606 30.536 48.097 31 44.997 31C41.896 31 40.387 30.536 38.789 30.044C37.12 29.531 35.394 29 31.993 29C28.594 29 26.869 29.531 25.202 30.044C23.605 30.536 22.097 31 18.999 31C15.9 31 14.391 30.536 12.794 30.044C11.125 29.531 9.4 29 6 29" stroke="#333333" stroke-width="2"/>
<path d="M49 7H48.384C44.363 3.136 39.107 1 33.515 1H30.486C24.894 1 19.637 3.136 15.617 7H15C9.486 7 5 11.486 5 17V54C5 55.654 6.346 57 8 57H9V60C9 61.654 10.346 63 12 63H14C15.654 63 17 61.654 17 60V57H47V60C47 61.654 48.346 63 50 63H52C53.654 63 55 61.654 55 60V57H56C57.654 57 59 55.654 59 54V17C59 11.486 54.514 7 49 7ZM30.485 3H33.514C38.479 3 43.161 4.845 46.777 8.21L43 15.764V13C43 11.346 41.654 10 40 10H26C23.243 10 21 12.243 21 15V15.764L17.223 8.21C20.838 4.845 25.52 3 30.485 3ZM41 13V21C41 22.654 39.654 24 38 24H24C23.449 24 23 23.552 23 23V15C23 13.346 24.346 12 26 12H40C40.551 12 41 12.448 41 13ZM15 9H15.382L19.382 17H7C7 12.589 10.589 9 15 9ZM15 60C15 60.552 14.551 61 14 61H12C11.449 61 11 60.552 11 60V57H15V60ZM53 60C53 60.552 52.551 61 52 61H50C49.449 61 49 60.552 49 60V57H53V60ZM57 54C57 54.552 56.551 55 56 55H8C7.449 55 7 54.552 7 54V51H57V54ZM7.101 49C7.566 46.721 9.585 45 12 45H52C54.414 45 56.434 46.721 56.899 49H7.101ZM57 45.111C55.728 43.81 53.958 43 52 43H12C10.042 43 8.272 43.81 7 45.111V19H21V23C21 24.654 22.346 26 24 26H38C40.757 26 43 23.757 43 21V19H57V45.111ZM44.618 17L48.618 9H49C53.411 9 57 12.589 57 17H44.618Z" fill="#333333"/>
<path d="M29 35C29 36.654 30.346 38 32 38V36C31.449 36 31 35.552 31 35C31 34.448 31.449 34 32 34V32C30.346 32 29 33.346 29 35Z" fill="#333333"/>
<path d="M12 35V37C12.551 37 13 37.448 13 38C13 38.552 12.551 39 12 39C11.449 39 11 38.552 11 38H9C9 39.654 10.346 41 12 41C13.654 41 15 39.654 15 38C15 36.346 13.654 35 12 35Z" fill="#333333"/>
<path d="M52 40V38C51.449 38 51 37.552 51 37C51 36.448 51.449 36 52 36C52.551 36 53 36.448 53 37H55C55 35.346 53.654 34 52 34C50.346 34 49 35.346 49 37C49 38.654 50.346 40 52 40Z" fill="#333333"/>
<path d="M38 35V37C38.551 37 39 37.448 39 38C39 38.552 38.551 39 38 39C37.449 39 37 38.552 37 38H35C35 39.654 36.346 41 38 41C39.654 41 41 39.654 41 38C41 36.346 39.654 35 38 35Z" fill="#333333"/>
<path d="M22 39C21.449 39 21 38.552 21 38C21 37.448 21.449 37 22 37V35C20.346 35 19 36.346 19 38C19 39.654 20.346 41 22 41C23.654 41 25 39.654 25 38H23C23 38.552 22.551 39 22 39Z" fill="#333333"/>
</g>
</svg>
